dapp/src/images/twitter-icon-gray.svg

<svg width="21" height="17" viewBox="0 0 21 17" fill="none" xmlns="http://www.w3.org/2000/svg">
<path d="M6.9 16.7412C14.5 16.7412 18.6 10.6412 18.6 5.34121C18.6 5.24121 18.6 4.94121 18.6 4.84121C19.4 4.24121 20.1 3.54121 20.7 2.74121C19.9 3.04121 19.2 3.24121 18.3 3.34121C19.1 2.84121 19.8 2.04121 20.1 1.14121C19.3 1.54121 18.4 1.94121 17.5 2.14121C16.7 1.24121 15.6 0.741211 14.5 0.741211C12.2 0.741211 10.4 2.54121 10.4 4.74121C10.4 5.04121 10.4 5.34121 10.5 5.64121C7 5.54121 4 3.84121 2 1.44121C1.6 2.04121 1.4 2.74121 1.4 3.54121C1.4 4.94121 2.2 6.14121 3.2 6.94121C2.5 6.94121 1.9 6.74121 1.4 6.44121C1.4 6.44121 1.4 6.44121 1.4 6.54121C1.4 8.44121 2.9 10.1412 4.7 10.5412C4.3 10.6412 4 10.6412 3.6 10.6412C3.4 10.6412 3.1 10.6412 2.8 10.5412C3.3 12.1412 4.9 13.3412 6.6 13.3412C5.2 14.3412 3.4 15.0412 1.5 15.0412C1.2 15.0412 0.8 15.0412 0.5 14.9412C2.4 16.0412 4.6 16.7412 6.9 16.7412Z" fill="#9EA2AB"/>
</svg>

<svg fill="none" height="17" viewBox="0 0 21 17" width="21" xmlns="http://www.w3.org/2000/svg"><path d="m6.9 16.7412c7.6 0 11.7-6.1 11.7-11.39999 0-.1 0-.4 0-.5.8-.6 1.5-1.3 2.1-2.1-.8.3-1.5.5-2.4.6.8-.5 1.5-1.3 1.8-2.2-.8.4-1.7.8-2.6 1-.8-.9-1.9-1.399999-3-1.399999-2.3 0-4.1 1.799999-4.1 3.999999 0 .3 0 .6.1.9-3.5-.1-6.5-1.8-8.5-4.2-.4.6-.6 1.3-.6 2.1 0 1.4.8 2.6 1.8 3.4-.7 0-1.3-.2-1.8-.5v.1c0 1.9 1.5 3.59999 3.3 3.99999-.4.1-.7.1-1.1.1-.2 0-.5 0-.8-.1.5 1.6 2.1 2.8 3.8 2.8-1.4 1-3.2 1.7-5.1 1.7-.3 0-.7 0-1-.1 1.9 1.1 4.1 1.8 6.4 1.8z" fill="#9ea2ab"/></svg>
